www/assets/icons/tire_repair.svg

<svg xmlns="http://www.w3.org/2000/svg" width="24" height="24" viewBox="0 0 24 24" fill='currentColor'><path d="M17 7.5a1.003 1.003 0 0 0 1.71.71c.4-.4 1.04-2.46 1.04-2.46s-2.06.64-2.46 1.04c-.18.18-.29.43-.29.71"/><path d="M18 2.5c-2.76 0-5 2.24-5 5 0 2.05 1.23 3.81 3 4.58v1.42h1v5c0 .55-.45 1-1 1s-1-.45-1-1v-2a3.01 3.01 0 0 0-4-2.83V5.5c0-1.1-.9-2-2-2H3c-1.1 0-2 .9-2 2v14c0 1.1.9 2 2 2h6c1.1 0 2-.9 2-2v-3c0-.55.45-1 1-1s1 .45 1 1v2c0 1.65 1.35 3 3 3s3-1.35 3-3v-5h1v-1.42c1.77-.77 3-2.53 3-4.58 0-2.76-2.24-5-5-5M5 20l-2-2v-2.83l2 2zm0-5-2-2v-2.83l2 2zm0-5L3 8V5.17l2 2zm4 8-2 2v-2.83l2-2zm0-5-2 2v-2.83l2-2zm0-5-2 2V7.17l2-2zm9 2.5c-1.66 0-3-1.34-3-3s1.34-3 3-3 3 1.34 3 3-1.34 3-3 3"/></svg>

<svg width="24" height="24" viewBox="0 0 24 24" xmlns="http://www.w3.org/2000/svg" fill='currentColor'><path d="M17 7.5C17 8.05 17.45 8.5 18 8.5C18.28 8.5 18.53 8.39 18.71 8.21C19.11 7.81 19.75 5.75 19.75 5.75C19.75 5.75 17.69 6.39 17.29 6.79C17.11 6.97 17 7.22 17 7.5Z"/><path d="M18 2.5C15.24 2.5 13 4.74 13 7.5C13 9.55 14.23 11.31 16 12.08V13.5H17V18.5C17 19.05 16.55 19.5 16 19.5C15.45 19.5 15 19.05 15 18.5V16.5C15 14.85 13.65 13.5 12 13.5C11.65 13.5 11.31 13.56 11 13.67V5.5C11 4.4 10.1 3.5 9 3.5H3C1.9 3.5 1 4.4 1 5.5V19.5C1 20.6 1.9 21.5 3 21.5H9C10.1 21.5 11 20.6 11 19.5V16.5C11 15.95 11.45 15.5 12 15.5C12.55 15.5 13 15.95 13 16.5V18.5C13 20.15 14.35 21.5 16 21.5C17.65 21.5 19 20.15 19 18.5V13.5H20V12.08C21.77 11.31 23 9.55 23 7.5C23 4.74 20.76 2.5 18 2.5ZM5 20L3 18V15.17L5 17.17V20ZM5 15L3 13V10.17L5 12.17V15ZM5 10L3 8V5.17L5 7.17V10ZM9 18L7 20V17.17L9 15.17V18ZM9 13L7 15V12.17L9 10.17V13ZM9 8L7 10V7.17L9 5.17V8ZM18 10.5C16.34 10.5 15 9.16 15 7.5C15 5.84 16.34 4.5 18 4.5C19.66 4.5 21 5.84 21 7.5C21 9.16 19.66 10.5 18 10.5Z"/></svg>
